icons/circle/48/easyrpg.svg

<?xml version="1.0" encoding="UTF-8" standalone="no"?>
<svg
   xmlns:dc="http://purl.org/dc/elements/1.1/"
   xmlns:cc="http://creativecommons.org/ns#"
   xmlns:rdf="http://www.w3.org/1999/02/22-rdf-syntax-ns#"
   xmlns:svg="http://www.w3.org/2000/svg"
   xmlns="http://www.w3.org/2000/svg"
   xmlns:sodipodi="http://sodipodi.sourceforge.net/DTD/sodipodi-0.dtd"
   xmlns:inkscape="http://www.inkscape.org/namespaces/inkscape"
   viewBox="0 0 48 48"
   id="svg2"
   version="1.1"
   inkscape:version="0.91 r13725"
   sodipodi:docname="easyrpg.svg">
  <metadata
     id="metadata45">
    <rdf:RDF>
      <cc:Work
         rdf:about="">
        <dc:format>image/svg+xml</dc:format>
        <dc:type
           rdf:resource="http://purl.org/dc/dcmitype/StillImage" />
        <dc:title></dc:title>
      </cc:Work>
    </rdf:RDF>
  </metadata>
  <sodipodi:namedview
     pagecolor="#ffffff"
     bordercolor="#666666"
     borderopacity="1"
     objecttolerance="10"
     gridtolerance="10"
     guidetolerance="10"
     inkscape:pageopacity="0"
     inkscape:pageshadow="2"
     inkscape:window-width="640"
     inkscape:window-height="480"
     id="namedview43"
     showgrid="false"
     inkscape:zoom="5.6568542"
     inkscape:cx="20.37288"
     inkscape:cy="21.67767"
     inkscape:current-layer="svg2">
    <inkscape:grid
       type="xygrid"
       id="grid4204" />
  </sodipodi:namedview>
  <defs
     id="defs4">
    <linearGradient
       id="linearGradient3764"
       x1="1"
       x2="47"
       gradientUnits="userSpaceOnUse"
       gradientTransform="matrix(0,-1,1,0,-1.5e-6,47.999998)">
      <stop
         style="stop-color:#75a45e;stop-opacity:0.99607843"
         id="stop7" />
      <stop
         offset="1"
         style="stop-color:#80ab6b;stop-opacity:0.99607843"
         id="stop9" />
    </linearGradient>
  </defs>
  <g
     id="g11">
    <path
       d="m 36.31 5 c 5.859 4.062 9.688 10.831 9.688 18.5 c 0 12.426 -10.07 22.5 -22.5 22.5 c -7.669 0 -14.438 -3.828 -18.5 -9.688 c 1.037 1.822 2.306 3.499 3.781 4.969 c 4.085 3.712 9.514 5.969 15.469 5.969 c 12.703 0 23 -10.298 23 -23 c 0 -5.954 -2.256 -11.384 -5.969 -15.469 c -1.469 -1.475 -3.147 -2.744 -4.969 -3.781 z m 4.969 3.781 c 3.854 4.113 6.219 9.637 6.219 15.719 c 0 12.703 -10.297 23 -23 23 c -6.081 0 -11.606 -2.364 -15.719 -6.219 c 4.16 4.144 9.883 6.719 16.219 6.719 c 12.703 0 23 -10.298 23 -23 c 0 -6.335 -2.575 -12.06 -6.719 -16.219 z"
       style="opacity:0.05"
       id="path13" />
    <path
       d="m 41.28 8.781 c 3.712 4.085 5.969 9.514 5.969 15.469 c 0 12.703 -10.297 23 -23 23 c -5.954 0 -11.384 -2.256 -15.469 -5.969 c 4.113 3.854 9.637 6.219 15.719 6.219 c 12.703 0 23 -10.298 23 -23 c 0 -6.081 -2.364 -11.606 -6.219 -15.719 z"
       style="opacity:0.1"
       id="path15" />
    <path
       d="m 31.25 2.375 c 8.615 3.154 14.75 11.417 14.75 21.13 c 0 12.426 -10.07 22.5 -22.5 22.5 c -9.708 0 -17.971 -6.135 -21.12 -14.75 a 23 23 0 0 0 44.875 -7 a 23 23 0 0 0 -16 -21.875 z"
       style="opacity:0.2"
       id="path17" />
  </g>
  <g
     id="g19">
    <path
       d="m 24 1 c 12.703 0 23 10.297 23 23 c 0 12.703 -10.297 23 -23 23 -12.703 0 -23 -10.297 -23 -23 0 -12.703 10.297 -23 23 -23 z"
       style="fill:url(#linearGradient3764);fill-opacity:1"
       id="path21" />
  </g>
  <g
     id="g23">
    <g
       id="g25">
      <g
         transform="translate(1,1)"
         id="g27">
        <g
           style="opacity:0.1"
           id="g29">
          <!-- color: #abd240 -->
        </g>
      </g>
    </g>
  </g>
  <g
     id="g31">
    <g
       id="g33">
      <!-- color: #abd240 -->
    </g>
  </g>
  <g
     id="g35">
    <path
       d="m 40.03 7.531 c 3.712 4.084 5.969 9.514 5.969 15.469 0 12.703 -10.297 23 -23 23 c -5.954 0 -11.384 -2.256 -15.469 -5.969 4.178 4.291 10.01 6.969 16.469 6.969 c 12.703 0 23 -10.298 23 -23 0 -6.462 -2.677 -12.291 -6.969 -16.469 z"
       style="opacity:0.1"
       id="path37" />
  </g>
  <path
     style="opacity:0.1;fill:#000000;fill-opacity:1;stroke:none;stroke-width:2;stroke-linecap:round;stroke-linejoin:round;stroke-miterlimit:4;stroke-dasharray:none;stroke-opacity:0.51541904"
     d="m 24.104638,9.0058594 c -2.036701,0.09182 -4.005329,1.1200556 -5.216797,2.8183596 -0.201448,0.282318 -0.376198,0.572514 -0.537109,0.867187 A 14,14 0 0 0 10.995263,25 a 14,14 0 0 0 0.146484,1.910156 c -1.9072743,2.532152 -1.3170734,6.306417 0.96875,8.351563 1.557524,1.393216 3.605629,1.884138 5.628907,1.691406 A 14,14 0 0 0 24.995263,39 14,14 0 0 0 33.454247,36.140625 c 0.744696,0.07022 1.495434,-2.37e-4 2.203125,-0.261719 3.761847,-1.389945 4.760365,-4.46722 4.222657,-7.621094 -0.153808,-0.90214 -0.474087,-1.745494 -0.921875,-2.513671 A 14,14 0 0 0 38.995263,25 14,14 0 0 0 29.792138,11.867188 C 29.598568,11.58029 29.380884,11.309469 29.139794,11.0625 l -0.002,0 C 28.70639,10.621082 28.223845,10.227002 27.694482,9.9082031 26.572069,9.2324408 25.326659,8.9507673 24.104638,9.0058594 Z"
     id="circle4206"
     inkscape:connector-curvature="0" />
  <circle
     style="opacity:1;fill:#b8d1a8;fill-opacity:1;stroke:none;stroke-width:2;stroke-linecap:round;stroke-linejoin:round;stroke-miterlimit:4;stroke-dasharray:none;stroke-opacity:0.51541904"
     id="path4173"
     cx="24"
     cy="24"
     r="14" />
  <path
     style="color:#000000;white-space:normal;display:inline;visibility:visible;opacity:0.1;isolation:auto;mix-blend-mode:normal;color-interpolation:sRGB;color-interpolation-filters:linearRGB;solid-color:#000000;solid-opacity:1;fill:#000000;fill-opacity:1;fill-rule:nonzero;stroke:none;color-rendering:auto;image-rendering:auto;shape-rendering:auto"
     d="M 24 10 A 14 14 0 0 0 20.056641 10.576172 C 19.619351 10.938251 19.222379 11.353365 18.886719 11.824219 C 16.466752 15.217866 17.014587 19.599397 19.533203 22.671875 C 20.478281 23.825227 22.042275 24.958549 22.21875 27.214844 C 22.552406 31.480744 20.194457 33.19533 17.101562 33.615234 C 15.235983 33.868508 13.337794 32.801643 13.136719 30.853516 C 12.910567 28.662435 14.117284 26.7706 16.246094 26.558594 C 18.201481 26.363994 19.361217 28.500949 18.039062 30.0625 C 16.805212 31.520422 14.292922 28.863273 14.382812 30.816406 C 14.466342 32.616057 17.272999 32.694988 18.712891 31.902344 C 20.969779 30.661163 21.062774 27.351328 19.261719 25.701172 C 16.967442 23.598543 13.194115 24.421348 11.300781 26.701172 C 10.995207 27.069283 10.75199 27.469149 10.556641 27.886719 A 14 14 0 0 0 18.464844 36.853516 C 20.018421 36.578569 21.521019 35.912696 22.732422 34.9375 C 25.099889 33.031052 25.347122 29.680533 26.988281 27.28125 C 29.023219 24.306843 33.87949 24.56882 35.9375 27.398438 C 36.50334 28.176178 36.698966 29.118577 36.615234 30.03125 A 14 14 0 0 0 37.978516 24.417969 C 35.830617 21.996951 32.290667 20.733083 29.117188 21.527344 C 27.646272 21.895417 26.113701 22.423374 24.609375 21.892578 C 21.146477 20.668804 19.883973 15.913789 22.214844 13.164062 C 23.419262 11.743329 26.081726 11.767989 27.470703 12.869141 C 29.237552 14.270114 28.826112 17.104034 26.847656 18.259766 C 25.369586 19.123602 22.853068 17.258125 23.966797 15.910156 C 24.7257 14.992533 26.283678 12.841452 24.123047 13.53125 C 21.936958 14.228966 21.535981 17.237831 22.818359 18.943359 C 24.430876 21.087924 27.804896 20.58991 29.513672 18.757812 C 31.54145 16.578453 31.093771 13.07258 29.132812 11.0625 L 29.130859 11.0625 C 29.087988 11.018609 29.038015 10.98235 28.994141 10.939453 A 14 14 0 0 0 24 10 z M 31.921875 26.402344 C 29.651354 26.291014 27.989027 28.436264 27.988281 30.642578 C 27.986808 32.906117 29.633199 34.840585 31.679688 35.699219 A 14 14 0 0 0 34.494141 33.248047 C 34.491464 33.249254 34.489009 33.250753 34.486328 33.251953 C 32.257284 34.250262 29.337791 32.118529 29.800781 29.742188 C 30.117399 28.136333 33.190536 27.602622 33.478516 29.28125 C 33.649551 30.280362 34.375998 32.41952 35.191406 30.814453 C 36.15478 28.918282 34.347746 26.80789 32.382812 26.455078 C 32.226344 26.426947 32.073243 26.409766 31.921875 26.402344 z "
     id="path4211" />
  <path
     d="m 28.132532,10.061685 c 1.960958,2.01008 2.408037,5.516064 0.380259,7.695423 -1.708776,1.832097 -5.081779,2.330464 -6.694296,0.185899 -1.282378,-1.705528 -0.881437,-4.714716 1.304652,-5.412432 2.160631,-0.689798 0.602982,1.461887 -0.155921,2.37951 -1.113729,1.347969 1.402505,3.214071 2.880575,2.350235 1.978456,-1.155732 2.389058,-3.989725 0.622209,-5.390698 -1.388977,-1.101152 -4.050955,-1.126566 -5.255373,0.294167 -2.330871,2.749726 -1.069121,7.504519 2.393777,8.728293 1.504326,0.530796 3.03809,0.0026 4.509006,-0.365473 4.58617,-1.14783 9.941196,1.99973 10.74747,6.731922 0.537359,3.153874 -0.460333,6.230434 -4.219735,7.620379 -3.343228,1.236076 -7.659319,-1.570932 -7.656933,-5.235916 7.95e-4,-2.353402 1.891305,-4.637398 4.394805,-4.187293 1.964933,0.352812 3.772354,2.461778 2.80898,4.357949 -0.815408,1.605067 -1.542513,-0.533966 -1.713548,-1.533078 -0.28798,-1.678628 -3.361071,-1.144664 -3.677689,0.46119 -0.46299,2.376341 2.45577,4.508247 4.684814,3.509938 2.051647,-0.918424 2.866842,-3.90884 1.451612,-5.854057 -2.05801,-2.829618 -6.914658,-3.091461 -8.949596,-0.117054 -1.641159,2.399283 -1.887555,5.751219 -4.255022,7.657667 -2.965699,2.387427 -7.671195,2.962528 -10.618596,0.324342 -2.3467832,-2.101052 -2.9131935,-6.032623 -0.813814,-8.561643 1.893334,-2.279824 5.668077,-3.103318 7.962354,-1.000689 1.801055,1.650156 1.707981,4.960732 -0.548907,6.201913 -1.439892,0.792644 -4.246486,0.713529 -4.330015,-1.086122 -0.08989,-1.953133 2.422358,0.704825 3.656208,-0.753097 1.322154,-1.561551 0.16149,-3.698201 -1.793897,-3.503601 -2.12881,0.212006 -3.336191,2.102712 -3.110039,4.293793 0.201075,1.948127 2.09988,3.014384 3.965459,2.76111 3.092895,-0.419904 5.450201,-2.133213 5.116545,-6.399113 -0.176475,-2.256295 -1.738983,-3.389542 -2.684061,-4.542894 -2.518616,-3.072478 -3.067025,-7.454299 -0.647058,-10.847946 1.937089,-2.7172863 5.810754,-3.717207 8.80191,-1.9151742 0.529019,0.3187994 1.011105,0.7111594 1.442275,1.1525772 z"
     mix-blend-mode="normal"
     isolation="auto"
     white-space="normal"
     style="color:#000000;white-space:normal;display:inline;visibility:visible;opacity:1;isolation:auto;mix-blend-mode:normal;color-interpolation:sRGB;color-interpolation-filters:linearRGB;solid-color:#000000;solid-opacity:1;fill:#587e3f;fill-opacity:1;fill-rule:nonzero;stroke:none;color-rendering:auto;image-rendering:auto;shape-rendering:auto"
     id="path41"
     inkscape:connector-curvature="0"
     sodipodi:nodetypes="ccscccccccssccccccccccccccccsssccccc" />
</svg>

<?xml version="1.0" encoding="UTF-8" standalone="no"?>
<svg id="svg2" xmlns:dc="http://purl.org/dc/elements/1.1/" viewBox="0 0 48 48" xmlns="http://www.w3.org/2000/svg" xmlns:rdf="http://www.w3.org/1999/02/22-rdf-syntax-ns#" xmlns:cc="http://creativecommons.org/ns#" version="1.1">
 <metadata id="metadata45">
  <rdf:RDF>
   <cc:Work rdf:about="">
    <dc:format>image/svg+xml</dc:format>
    <dc:type rdf:resource="http://purl.org/dc/dcmitype/StillImage"/>
    <dc:title/>
   </cc:Work>
  </rdf:RDF>
 </metadata>
 <defs id="defs4">
  <linearGradient id="linearGradient3764" gradientTransform="matrix(0 -1 1 0 -.0000015 48)" x2="47" gradientUnits="userSpaceOnUse" x1="1">
   <stop id="stop7" offset="0" style="stop-color:#75a45e;stop-opacity:.99608"/>
   <stop id="stop9" style="stop-color:#80ab6b;stop-opacity:.99608" offset="1"/>
  </linearGradient>
 </defs>
 <g id="g11">
  <path id="path13" d="m36.31 5c5.859 4.062 9.688 10.831 9.688 18.5 0 12.426-10.07 22.5-22.5 22.5-7.669 0-14.438-3.828-18.5-9.688 1.037 1.822 2.306 3.499 3.781 4.969 4.085 3.712 9.514 5.969 15.469 5.969 12.703 0 23-10.298 23-23 0-5.954-2.256-11.384-5.969-15.469-1.469-1.475-3.147-2.744-4.969-3.781zm4.969 3.781c3.854 4.113 6.219 9.637 6.219 15.719 0 12.703-10.297 23-23 23-6.081 0-11.606-2.364-15.719-6.219 4.16 4.144 9.883 6.719 16.219 6.719 12.703 0 23-10.298 23-23 0-6.335-2.575-12.06-6.719-16.219z" style="opacity:.05"/>
  <path id="path15" d="m41.28 8.781c3.712 4.085 5.969 9.514 5.969 15.469 0 12.703-10.297 23-23 23-5.954 0-11.384-2.256-15.469-5.969 4.113 3.854 9.637 6.219 15.719 6.219 12.703 0 23-10.298 23-23 0-6.081-2.364-11.606-6.219-15.719z" style="opacity:.1"/>
  <path id="path17" d="m31.25 2.375c8.615 3.154 14.75 11.417 14.75 21.13 0 12.426-10.07 22.5-22.5 22.5-9.708 0-17.971-6.135-21.12-14.75a23 23 0 0 0 44.875 -7 23 23 0 0 0 -16 -21.875z" style="opacity:.2"/>
 </g>
 <g id="g19">
  <path id="path21" d="m24 1c12.703 0 23 10.297 23 23s-10.297 23-23 23-23-10.297-23-23 10.297-23 23-23z" style="fill:url(#linearGradient3764)"/>
 </g>
 <g id="g23">
  <g id="g25">
   <g id="g27" transform="translate(1,1)">
    <g id="g29" style="opacity:.1"><!-- color: #abd240 --></g>
   </g>
  </g>
 </g>
 <g id="g31">
  <g id="g33"><!-- color: #abd240 --></g>
 </g>
 <g id="g35">
  <path id="path37" d="m40.03 7.531c3.712 4.084 5.969 9.514 5.969 15.469 0 12.703-10.297 23-23 23-5.954 0-11.384-2.256-15.469-5.969 4.178 4.291 10.01 6.969 16.469 6.969 12.703 0 23-10.298 23-23 0-6.462-2.677-12.291-6.969-16.469z" style="opacity:.1"/>
 </g>
 <path id="circle4206" d="m24.105 9.0059c-2.0367 0.09182-4.0053 1.1201-5.2168 2.8184-0.20145 0.28232-0.3762 0.57251-0.53711 0.86719a14 14 0 0 0 -7.356 12.308 14 14 0 0 0 0.14648 1.9102c-1.9073 2.5322-1.3171 6.3064 0.96875 8.3516 1.5575 1.3932 3.6056 1.8841 5.6289 1.6914a14 14 0 0 0 7.256 2.047 14 14 0 0 0 8.459 -2.859c0.7447 0.07022 1.4954-0.000237 2.2031-0.26172 3.7618-1.3899 4.7604-4.4672 4.2227-7.6211-0.15381-0.90214-0.47409-1.7455-0.92188-2.5137a14 14 0 0 0 0.037 -0.745 14 14 0 0 0 -9.203 -13.133c-0.193-0.287-0.411-0.558-0.652-0.805h-0.002c-0.432-0.441-0.914-0.835-1.444-1.1538-1.122-0.6758-2.367-0.9574-3.589-0.9023z" style="opacity:.1"/>
 <circle id="path4173" cy="24" cx="24" r="14" style="fill:#b8d1a8"/>
 <path id="path4211" d="m24 10a14 14 0 0 0 -3.943 0.576c-0.438 0.362-0.835 0.777-1.17 1.248-2.42 3.394-1.872 7.775 0.646 10.848 0.945 1.153 2.509 2.287 2.686 4.543 0.333 4.266-2.025 5.98-5.117 6.4-1.866 0.254-3.764-0.813-3.965-2.761-0.226-2.192 0.98-4.083 3.109-4.295 1.955-0.195 3.115 1.942 1.793 3.503-1.234 1.458-3.746-1.199-3.656 0.754 0.083 1.8 2.89 1.879 4.33 1.086 2.257-1.241 2.35-4.551 0.549-6.201-2.295-2.102-6.068-1.28-7.961 1-0.306 0.368-0.549 0.768-0.744 1.186a14 14 0 0 0 7.908 8.967c1.553-0.275 3.056-0.941 4.267-1.916 2.368-1.907 2.615-5.257 4.256-7.657 2.035-2.974 6.891-2.712 8.95 0.117 0.565 0.778 0.761 1.721 0.677 2.633a14 14 0 0 0 1.364 -5.613c-2.148-2.421-5.688-3.685-8.862-2.891-1.471 0.368-3.003 0.896-4.508 0.366-3.463-1.224-4.725-5.979-2.394-8.729 1.204-1.421 3.867-1.396 5.256-0.295 1.767 1.401 1.355 4.235-0.623 5.391-1.478 0.864-3.995-1.002-2.881-2.35 0.759-0.917 2.317-3.069 0.156-2.379-2.186 0.698-2.587 3.707-1.305 5.412 1.613 2.145 4.987 1.647 6.696-0.185 2.027-2.18 1.58-5.685-0.381-7.696h-0.002c-0.043-0.043-0.093-0.08-0.137-0.123a14 14 0 0 0 -4.994 -0.939zm7.922 16.402c-2.271-0.111-3.933 2.034-3.934 4.241-0.001 2.263 1.645 4.198 3.692 5.056a14 14 0 0 0 2.814 -2.451c-0.003 0.001-0.005 0.003-0.008 0.004-2.229 0.998-5.148-1.133-4.685-3.51 0.316-1.606 3.39-2.139 3.678-0.461 0.171 0.999 0.897 3.139 1.712 1.533 0.964-1.896-0.843-4.006-2.808-4.359-0.157-0.028-0.31-0.045-0.461-0.053z" style="isolation:auto;color:#000000;white-space:normal;color-rendering:auto;solid-color:#000000;opacity:.1;mix-blend-mode:normal;shape-rendering:auto;image-rendering:auto"/>
 <path id="path41" isolation="auto" d="m28.133 10.062c1.961 2.0101 2.408 5.5161 0.38026 7.6954-1.7088 1.8321-5.0818 2.3305-6.6943 0.1859-1.2824-1.7055-0.88144-4.7147 1.3047-5.4124 2.1606-0.6898 0.60298 1.4619-0.15592 2.3795-1.1137 1.348 1.4025 3.2141 2.8806 2.3502 1.9785-1.1557 2.3891-3.9897 0.62221-5.3907-1.389-1.1012-4.051-1.1266-5.2554 0.29417-2.3309 2.7497-1.0691 7.5045 2.3938 8.7283 1.5043 0.5308 3.0381 0.0026 4.509-0.36547 4.5862-1.1478 9.9412 1.9997 10.747 6.7319 0.53736 3.1539-0.46033 6.2304-4.2197 7.6204-3.3432 1.2361-7.6593-1.5709-7.6569-5.2359 0.000795-2.3534 1.8913-4.6374 4.3948-4.1873 1.9649 0.35281 3.7724 2.4618 2.809 4.3579-0.81541 1.6051-1.5425-0.53397-1.7135-1.5331-0.28798-1.6786-3.3611-1.1447-3.6777 0.46119-0.46299 2.3763 2.4558 4.5082 4.6848 3.5099 2.0516-0.91842 2.8668-3.9088 1.4516-5.8541-2.058-2.8296-6.9147-3.0915-8.9496-0.11705-1.6412 2.3993-1.8876 5.7512-4.255 7.6577-2.9657 2.3874-7.6712 2.9625-10.619 0.32434-2.3468-2.1011-2.9132-6.0326-0.81381-8.5616 1.8933-2.2798 5.6681-3.1033 7.9624-1.0007 1.8011 1.6502 1.708 4.9607-0.54891 6.2019-1.4399 0.79264-4.2465 0.71353-4.33-1.0861-0.08989-1.9531 2.4224 0.70482 3.6562-0.7531 1.3222-1.5616 0.16149-3.6982-1.7939-3.5036-2.1288 0.21201-3.3362 2.1027-3.11 4.2938 0.20108 1.9481 2.0999 3.0144 3.9655 2.7611 3.0929-0.4199 5.4502-2.1332 5.1165-6.3991-0.17648-2.2563-1.739-3.3895-2.6841-4.5429-2.5186-3.0725-3.067-7.4543-0.64706-10.848 1.9371-2.7173 5.8108-3.7172 8.8019-1.9152 0.52902 0.3188 1.0111 0.71116 1.4423 1.1526z" style="isolation:auto;color:#000000;white-space:normal;color-rendering:auto;solid-color:#000000;fill:#587e3f;mix-blend-mode:normal;shape-rendering:auto;image-rendering:auto" mix-blend-mode="normal" white-space="normal"/>
</svg>
